X: 1
T: Westfork Girls (R-31)
I: Westfork Girls	R-31	D	reel
M: C|
R: reel
K: D
"D"fgfe d2ef| "G"g2g2 B4| "A"efed c2A2| ABAG "D"F2D2|
"D"fgfe d2ef| "G"g2g2 B4| "A"efed c2A2| ABc2 "D"d4 :|
|:"D"ABAG F2A2|    d2d2 F3A| "A"G2F2 E3F| G2F2 E4|
"A"efed cABc| "D"d2A2 F2A2| d2d2 "A"efg2| "D"f2d2 d4 :|

